X:1
T:Title
%%score { ( 1 4 ) | ( 2 3 ) }
L:1/8
Q:1/4=100
M:4/4
K:G
V:1 treble nm="Grand Piano"
V:4 treble 
V:2 treble 
V:3 treble 
V:1
 B4 c2 B2 | [GB]3 [FA] G4 | d4 G2 .[^CGA]2 | [DFA]6 z2 | [DGB]4 [EGc]2 [DGB]2 | %5
w: W.~H.~Doane * *|||||
 [DAd]3 [DAc] [DGB]4 | [^CGB]4 [CGA]2 [G^c]2 | [Fd]6 z2 | d4 z4 | [Bd]2 [Ac]B c4 | c4 z4 | %11
w: ||||||
 [Ac]2 [GB]A B4 | B4 A2 G2 | [EG]3 [Ec] [Ec]4 | [DB]4 [DGB]2 [CFA]2 | [G,G]6 z2 |] %16
w: |||||
V:2
 [G,DG]4 [G,EG]2 [G,DG]2 | [D,D]3 [D,C] [G,B,]4 | [G,B,G]4 [E,B,]2 z[K:treble] B | D,6 z2 | %4
 G,4 G,2 G,2 | F,3 F, G,4 | E,4 E,2 [E,A,]2 | [D,A,]6 z2 | B,2- [F,B,]2 [E,B,]2 [E,E]2 | %9
 [E,E]2 z[K:treble] ^G [A,EA]4 | [A,E]2 z2[K:bass] z4 | [D,D]2 z[K:treble] F [G,DG]4 | %12
 [G,DG]4 [G,CD]2 [G,B,D]2 | [C,C]3 [C,G,] [C,G,]4 | G,2 z2 z4 | G,,6 z2 |] %16
V:3
 x8 | x8 | z4 z2 A,,2[K:treble] | x8 | x8 | x8 | x8 | x8 | G,2 z2 z4 | z2 [E,E]2[K:treble] z4 | %10
 A2- [G,A]2[K:bass] F,2 [D,D]2 | z2 [D,D]2[K:treble] z4 | x8 | x8 | D,2- [D,B,]2 D,2 D,2 | x8 |] %16
V:4
 x8 | x8 | x8 | x8 | x8 | x8 | x8 | x8 | B2 A2 [^Ge]2 [GB]2 | x8 | z2 ^D2 [=DAd]2 [FA]2 | x8 | x8 | %13
 x8 | x8 | x8 |] %16

